stuff/config/qss/Default/imgs/black/flipmarker.svg

<?xml version="1.0" encoding="UTF-8" standalone="no"?>
<svg
   xmlns:dc="http://purl.org/dc/elements/1.1/"
   xmlns:cc="http://creativecommons.org/ns#"
   xmlns:rdf="http://www.w3.org/1999/02/22-rdf-syntax-ns#"
   xmlns:svg="http://www.w3.org/2000/svg"
   xmlns="http://www.w3.org/2000/svg"
   id="svg10"
   style="fill-rule:evenodd;clip-rule:evenodd;stroke-linecap:round;stroke-linejoin:round;stroke-miterlimit:1.5;"
   xml:space="preserve"
   version="1.1"
   viewBox="0 0 22 17"
   height="100%"
   width="100%"><metadata
     id="metadata16"><rdf:RDF><cc:Work
         rdf:about=""><dc:format>image/svg+xml</dc:format><dc:type
           rdf:resource="http://purl.org/dc/dcmitype/StillImage" /><dc:title></dc:title></cc:Work></rdf:RDF></metadata><defs
     id="defs14" /><rect
     id="rect2"
     style="fill-opacity:0.49186993;fill:#ffffff"
     height="13"
     width="18"
     y="2"
     x="2" /><g
     id="g8"><path
       id="path4"
       style="fill:none;stroke:#2f2f2f;stroke-width:2px;stroke-opacity:1"
       d="M19.5,1c0.828,0 1.5,0.672 1.5,1.5l0,12c0,0.828 -0.672,1.5 -1.5,1.5l-17,0c-0.828,0 -1.5,-0.672 -1.5,-1.5l0,-12c0,-0.828 0.672,-1.5 1.5,-1.5l17,0Zm-0.85,1l-15.3,0c-0.745,0 -1.35,0.583 -1.35,1.3l0,10.4c0,0.717 0.605,1.3 1.35,1.3l15.3,0c0.745,0 1.35,-0.583 1.35,-1.3l0,-10.4c0,-0.717 -0.605,-1.3 -1.35,-1.3l0,0Z" /><path
       id="path6"
       style="fill:#9b9b9b;"
       d="M19.5,1c0.828,0 1.5,0.672 1.5,1.5l0,12c0,0.828 -0.672,1.5 -1.5,1.5l-17,0c-0.828,0 -1.5,-0.672 -1.5,-1.5l0,-12c0,-0.828 0.672,-1.5 1.5,-1.5l17,0Zm-0.85,1l-15.3,0c-0.745,0 -1.35,0.583 -1.35,1.3l0,10.4c0,0.717 0.605,1.3 1.35,1.3l15.3,0c0.745,0 1.35,-0.583 1.35,-1.3l0,-10.4c0,-0.717 -0.605,-1.3 -1.35,-1.3l0,0Z" /></g></svg>

<?xml version="1.0" encoding="utf-8"?>
<!-- Generator: Adobe Illustrator 21.0.2, SVG Export Plug-In . SVG Version: 6.00 Build 0)  -->
<svg version="1.1"
	 id="svg10" inkscape:version="0.91 r13725" sodipodi:docname="flipmarker.svg" xmlns:cc="http://creativecommons.org/ns#" xmlns:dc="http://purl.org/dc/elements/1.1/" xmlns:inkscape="http://www.inkscape.org/namespaces/inkscape" xmlns:rdf="http://www.w3.org/1999/02/22-rdf-syntax-ns#" xmlns:sodipodi="http://sodipodi.sourceforge.net/DTD/sodipodi-0.dtd" xmlns:svg="http://www.w3.org/2000/svg"
	 xmlns="http://www.w3.org/2000/svg" xmlns:xlink="http://www.w3.org/1999/xlink" x="0px" y="0px" viewBox="0 0 22 17"
	 style="enable-background:new 0 0 22 17;" xml:space="preserve">
<style type="text/css">
	.st0{fill:#FFFFFF;fill-opacity:0.4919;}
	.st1{fill:none;stroke:#2F2F2F;stroke-width:2;stroke-linecap:round;stroke-linejoin:round;stroke-miterlimit:1.5;}
	.st2{fill:#9B9B9B;}
</style>
<rect id="rect2" x="2" y="2" class="st0" width="18" height="13"/>
<g id="g8">
	<path id="path4" inkscape:connector-curvature="0" class="st1" d="M19.5,1C20.3,1,21,1.7,21,2.5v12c0,0.8-0.7,1.5-1.5,1.5h-17
		C1.7,16,1,15.3,1,14.5v-12C1,1.7,1.7,1,2.5,1H19.5z M18.6,2H3.3C2.6,2,2,2.6,2,3.3v10.4C2,14.4,2.6,15,3.3,15h15.3
		c0.7,0,1.4-0.6,1.4-1.3V3.3C20,2.6,19.4,2,18.6,2L18.6,2z"/>
	<path id="path6" inkscape:connector-curvature="0" class="st2" d="M19.5,1C20.3,1,21,1.7,21,2.5v12c0,0.8-0.7,1.5-1.5,1.5h-17
		C1.7,16,1,15.3,1,14.5v-12C1,1.7,1.7,1,2.5,1H19.5z M18.6,2H3.3C2.6,2,2,2.6,2,3.3v10.4C2,14.4,2.6,15,3.3,15h15.3
		c0.7,0,1.4-0.6,1.4-1.3V3.3C20,2.6,19.4,2,18.6,2L18.6,2z"/>
</g>
</svg>
